X: 171
M: C
L: 1/8
K: G
(B>c) | d2 (g>e) (e>d) (c>B) |
e3 a (gf) (ed) | g3 e (d<B) (AG) |
e2 a>g (gf) (ed) | g2 f>e (d2 f/e/) d/c/ |
(e>d) (e>f/g//) (cB) A>G | (c>B) (c>d/e//) (d<B) (AG) |
(e/d/c/B/) (df) g3 e | (d<B) (F>G) (A>B) c>d/e// |

